assets/images/services/icon-services-4.svg

<svg viewBox="0 0 58 65" xmlns="http://www.w3.org/2000/svg"><g fill-rule="evenodd"><path d="m58 57a8 8 0 0 1 -8 8h-36a8 8 0 0 1 -8-8v-44a8 8 0 0 1 8-8h36a8 8 0 0 1 8 8z" fill="#e56a77"/><path d="m45.5 63h-36a9.51 9.51 0 0 1 -9.5-9.5v-44a9.51 9.51 0 0 1 9.5-9.5h36a9.51 9.51 0 0 1 9.5 9.5v44a9.51 9.51 0 0 1 -9.5 9.5zm-36-60a6.5 6.5 0 0 0 -6.5 6.5v44a6.5 6.5 0 0 0 6.5 6.5h36a6.51 6.51 0 0 0 6.5-6.5v-44a6.51 6.51 0 0 0 -6.5-6.5z"/><path d="m5 20h-2a1.5 1.5 0 0 1 0-3h2a1.5 1.5 0 0 1 0 3z"/><path d="m52 20h-47a1.5 1.5 0 0 1 0-3h47a1.5 1.5 0 0 1 0 3z"/><path d="m54 20h-2a1.5 1.5 0 0 1 0-3h2a1.5 1.5 0 0 1 0 3z"/><path d="m17.23 11.14a2.56 2.56 0 1 1 -5.11 0 2.56 2.56 0 0 1 5.11 0z"/><path d="m26.43 11.14a2.56 2.56 0 1 1 -5.11 0 2.56 2.56 0 0 1 5.11 0z"/><path d="m34.61 11.14a2.56 2.56 0 1 1 -5.11 0 2.56 2.56 0 0 1 5.11 0z"/><g fill="#edc951"><path d="m37.9 45.42a1.5 1.5 0 0 1 -.85-2.74l7.65-5.2-7.48-3.83a1.5 1.5 0 1 1 1.36-2.65l7.74 4a2.84 2.84 0 0 1 .39 4.81l-8 5.41a1.49 1.49 0 0 1 -.81.2z"/><path d="m20.71 49.42a1.47 1.47 0 0 1 -.85-.26l-7.92-5.38a2.85 2.85 0 0 1 -1.19-2.55 2.8 2.8 0 0 1 1.53-2.29l7.72-3.94a1.5 1.5 0 0 1 1.37 2.67l-7.47 3.81 7.65 5.2a1.5 1.5 0 0 1 -.84 2.74z"/><path d="m26.43 52.31a1.48 1.48 0 0 1 -1.5-1.49 1.37 1.37 0 0 1 .07-.45l6.58-21.12a1.48 1.48 0 0 1 1.87-1 1.48 1.48 0 0 1 1 1.87l-6.59 21.14a1.48 1.48 0 0 1 -1.43 1.05z"/></g></g></svg>

<svg id="Layer_1" data-name="Layer 1" xmlns="http://www.w3.org/2000/svg" viewBox="0 0 58 65"><title>icon-services-4</title><g id="group-54svg"><path id="path-1" d="M58,57a8,8,0,0,1-8,8H14a8,8,0,0,1-8-8H6V13a8,8,0,0,1,8-8H50a8,8,0,0,1,8,8Z" transform="translate(0 0)" style="fill:#e56a77;fill-rule:evenodd"/><path id="path-2" d="M45.5,63H9.5A9.51,9.51,0,0,1,0,53.5V9.5A9.51,9.51,0,0,1,9.5,0h36A9.51,9.51,0,0,1,55,9.5v44A9.51,9.51,0,0,1,45.5,63ZM9.5,3A6.5,6.5,0,0,0,3,9.5v44A6.5,6.5,0,0,0,9.5,60h36A6.51,6.51,0,0,0,52,53.5V9.5A6.51,6.51,0,0,0,45.5,3Z" transform="translate(0 0)" style="fill-rule:evenodd"/><path id="path-3" d="M5,20H3a1.5,1.5,0,0,1,0-3H5a1.5,1.5,0,0,1,0,3Z" transform="translate(0 0)" style="fill-rule:evenodd"/><path id="path-4" d="M52,20H5a1.5,1.5,0,0,1,0-3H52a1.5,1.5,0,0,1,0,3Z" transform="translate(0 0)" style="fill-rule:evenodd"/><path id="path-5" d="M54,20H52a1.5,1.5,0,0,1,0-3h2a1.5,1.5,0,0,1,0,3Z" transform="translate(0 0)" style="fill-rule:evenodd"/><path id="path-6" d="M17.23,11.14a2.56,2.56,0,1,1-5.11,0h0a2.56,2.56,0,0,1,5.11,0Z" transform="translate(0 0)" style="fill-rule:evenodd"/><path id="path-7" d="M26.43,11.14a2.56,2.56,0,1,1-5.11,0h0a2.56,2.56,0,0,1,5.11,0Z" transform="translate(0 0)" style="fill-rule:evenodd"/><path id="path-8" d="M34.61,11.14a2.56,2.56,0,1,1-5.11,0h0a2.56,2.56,0,0,1,5.11,0Z" transform="translate(0 0)" style="fill-rule:evenodd"/><path id="path-9" d="M37.9,45.42a1.5,1.5,0,0,1-.85-2.74l7.65-5.2-7.48-3.83A1.5,1.5,0,1,1,38.58,31l7.74,4a2.84,2.84,0,0,1,.39,4.81l-8,5.41A1.49,1.49,0,0,1,37.9,45.42Z" transform="translate(0 0)" style="fill:#edc951;fill-rule:evenodd"/><path id="path-10" d="M20.71,49.42a1.47,1.47,0,0,1-.85-.26l-7.92-5.38a2.85,2.85,0,0,1-1.19-2.55,2.8,2.8,0,0,1,1.53-2.29L20,35a1.5,1.5,0,0,1,1.37,2.67L13.9,41.48l7.65,5.2a1.5,1.5,0,0,1-.84,2.74Z" transform="translate(0 0)" style="fill:#edc951;fill-rule:evenodd"/><path id="path-11" d="M26.43,52.31a1.48,1.48,0,0,1-1.5-1.49,1.37,1.37,0,0,1,.07-.45l6.58-21.12a1.48,1.48,0,0,1,1.87-1h0a1.48,1.48,0,0,1,1,1.87h0L27.86,51.26A1.48,1.48,0,0,1,26.43,52.31Z" transform="translate(0 0)" style="fill:#edc951;fill-rule:evenodd"/></g></svg>
